svgs/snapseed.svg

<svg id="Layer_1" data-name="Layer 1" xmlns="http://www.w3.org/2000/svg" viewBox="0 0 24 24">
  <g>
    <path d="M20.297,10.66722H15.74062c.03574.38148.05379.76926.05379,1.15775a12.19584,12.19584,0,0,1-1.06229,5.09134,11.70063,11.70063,0,0,1-2.33727,3.37416A12.71217,12.71217,0,0,1,10.30328,22H20.297a1.06762,1.06762,0,0,0,1.06643-1.06643V11.73365A1.06763,1.06763,0,0,0,20.297,10.66722Z"/>
    <path d="M2.63661,11.825a10.89772,10.89772,0,0,0,3.15771,7.90692,11.82274,11.82274,0,0,0,2.65727,2.02979V16.92347L2.6572,11.129C2.64351,11.35975,2.63661,11.59213,2.63661,11.825Z"/>
    <path d="M3.83024,6.82815a10.58157,10.58157,0,0,0-1.07206,3.32156l5.69341,5.69338V9.69143L5.5883,6.82815Z"/>
    <path d="M6.12849,6.288l2.3231,2.32309V2a13.05362,13.05362,0,0,0-2.3231,1.77966Z"/>
    <path d="M9.21551,2.00063V8.61105l3.512-3.512A13.01319,13.01319,0,0,0,9.21551,2.00063Z"/>
    <path d="M13.18171,5.72523l-3.9662,3.9662v6.15166l5.69341-5.69338A10.633,10.633,0,0,0,13.18171,5.72523Z"/>
    <path d="M11.87279,19.73189a10.89772,10.89772,0,0,0,3.1577-7.90692c0-.23276-.0069-.46522-.02059-.69589L9.21551,16.92347v4.83821A11.82291,11.82291,0,0,0,11.87279,19.73189Z"/>
  </g>
</svg>

<svg xmlns="http://www.w3.org/2000/svg" data-name="Layer 1" viewBox="0 0 24 24"><path d="M20.297 10.667h-4.556c.035.382.053.77.053 1.158a12.196 12.196 0 0 1-1.062 5.091 11.7 11.7 0 0 1-2.337 3.374A12.712 12.712 0 0 1 10.303 22h9.994a1.068 1.068 0 0 0 1.066-1.066v-9.2a1.068 1.068 0 0 0-1.066-1.067m-17.66 1.158a10.898 10.898 0 0 0 3.157 7.907 11.823 11.823 0 0 0 2.658 2.03v-4.839L2.657 11.13c-.013.23-.02.463-.02.696M3.83 6.828a10.582 10.582 0 0 0-1.072 3.322l5.694 5.693V9.691L5.588 6.828Zm2.298-.54 2.324 2.323V2a13.054 13.054 0 0 0-2.324 1.78ZM9.216 2v6.611L12.728 5.1a13.013 13.013 0 0 0-3.512-3.098m3.966 3.723L9.216 9.691v6.152l5.693-5.693a10.633 10.633 0 0 0-1.727-4.425"/><path d="M11.873 19.732a10.898 10.898 0 0 0 3.157-7.907c0-.233-.006-.465-.02-.696l-5.794 5.794v4.839a11.823 11.823 0 0 0 2.657-2.03"/></svg>
